lib/radiotmp/nrk-hardware-game-expressive.svg

<svg width="24" height="24" viewBox="0 0 24 24" fill="none" xmlns="http://www.w3.org/2000/svg">
<path fill-rule="evenodd" clip-rule="evenodd" d="M23 19C23 20.6569 21.6569 22 20 22H19.3423C17.9657 22 16.7658 21.0631 16.4319 19.7276L16 18H8L7.5681 19.7276C7.23422 21.0631 6.03427 22 4.65767 22H4C2.34315 22 1 20.6569 1 19V13C1 6.92487 5.92487 2 12 2C18.0751 2 23 6.92487 23 13V19ZM7.81282 16C7.00509 16 6.30102 16.5497 6.10512 17.3333L5.69775 18.9628C5.54536 19.5724 4.99765 20 4.36932 20C3.61307 20 3 19.3869 3 18.6307V13C3 8.02944 7.02944 4 12 4C16.9706 4 21 8.02944 21 13V18.6307C21 19.3869 20.3869 20 19.6307 20C19.0024 20 18.4547 19.5724 18.3023 18.9628L17.8949 17.3333C17.699 16.5497 16.995 16 16.1872 16H7.81282ZM9 10V9C9 8.44772 8.55228 8 8 8C7.44772 8 7 8.44772 7 9V10H6C5.44772 10 5 10.4477 5 11C5 11.5523 5.44772 12 6 12H7V13C7 13.5523 7.44772 14 8 14C8.55228 14 9 13.5523 9 13V12H10C10.5523 12 11 11.5523 11 11C11 10.4477 10.5523 10 10 10H9ZM15 11C15 11.5523 15.4477 12 16 12C16.5523 12 17 11.5523 17 11C17 10.4477 16.5523 10 16 10C15.4477 10 15 10.4477 15 11ZM13 11C13 12.6569 14.3431 14 16 14C17.6569 14 19 12.6569 19 11C19 9.34315 17.6569 8 16 8C14.3431 8 13 9.34315 13 11Z" fill="black"/>
</svg>

<svg xmlns="http://www.w3.org/2000/svg" viewBox="0 0 24 24"><path fill="#000" fill-rule="evenodd" d="M23 19a3 3 0 0 1-3 3h-.658a3 3 0 0 1-2.91-2.272L16 18H8l-.432 1.728A3 3 0 0 1 4.658 22H4a3 3 0 0 1-3-3v-6C1 6.925 5.925 2 12 2s11 4.925 11 11v6ZM7.813 16a1.76 1.76 0 0 0-1.708 1.333l-.407 1.63A1.37 1.37 0 0 1 3 18.63V13a9 9 0 0 1 18 0v5.63a1.37 1.37 0 0 1-2.698.333l-.407-1.63A1.76 1.76 0 0 0 16.187 16H7.813ZM9 10V9a1 1 0 0 0-2 0v1H6a1 1 0 1 0 0 2h1v1a1 1 0 1 0 2 0v-1h1a1 1 0 1 0 0-2H9Zm6 1a1 1 0 1 0 2 0 1 1 0 0 0-2 0Zm-2 0a3 3 0 1 0 6 0 3 3 0 0 0-6 0Z" clip-rule="evenodd"/></svg>
